X:15
T:ROND DE LOUDEAC 9
Z: Yves Belotteau
M:4/4
L:1/8
Q:1/4=120
K:G 
|:EEB3/2 z/2 GF/2E/2G3/2 z/2 |FEDE FGFE|EEB3/2 z/2 GF/2E/2G3/2 z/2 |FEDE
 FDE3/2 z/2:|
|:EGEF GAF3/2 z/2 |FAFG ABG3/2 z/2 |EGEF GAF3/2 z/2 |DEFD E3/2 z/2 E3/2 
z/2:|
